X: 33089
T: Primrose Polka, The
R: barndance
M: 4/4
K: Dmajor
A2|F>G^G>A B>AG>A|f2 d2 f2 d2|F>G^G>A B>AG>A|E4- E2 D2|
E>FG>A B>A^G>A|f2 (3efe c2 (3BCB|A>Bc>B A>GE>=F|F4- F2 A2|
F>G^G>A B>AG>A|f2 d2 f2 d>A|d>DF>d e>dc>d|B4- B>^AB>d|
B>^AB>d g2 d2|A>^GA>d f2 d2|A>^GA>c (3ded c2|d4- d2||
D2|F4- F>G^G>A|f4- f2 (3efe|d>AF>A d>Ae>d|c2 (3BcB G4|
E4 E>FG>A|c4- c2 B2|A>Bc>B A>GE>=F|F4- F2 A2|
F4- F>G^G>A|f4- f2 e2|d>A (3FGA d>A (3fed|c2 B2 B4|
g>fe>f g2 B2|f>ed>e f2 A2|e>d (3Bcd e>gf>e|d2 f2 d2-||
d>A|f>ed>c d2 A2|(3gfe d>c d2 A2|B>^AB>c d>ed>B|A4 F2- F>A|
G>FG>A A2- A>G|F>^EF>G A2 F2|^G4-G>EF>G|(3ABA (3GAG (3FGF (3EFE|
f>ed>c d2 A2|f>ed>c d2 A2|B>^AB>c d3 B|A4- A2 A2|
B>^A (3Bcd g2 d2|A>^G (3ABd f2 d2|A>^GA>g (3fgf (3efe|d4- d2||

